icons/circle/48/steam_icon_249990.svg

<svg viewBox="0 0 48 48" xmlns="http://www.w3.org/2000/svg">
 <defs>
  <linearGradient id="linearGradient3764" x1="1" x2="47" gradientTransform="matrix(0 -1 1 0 -1.5e-6 48)" gradientUnits="userSpaceOnUse">
   <stop style="stop-color:#313639" offset="0"/>
   <stop style="stop-color:#3a4043" offset="1"/>
  </linearGradient>
 </defs>
 <path d="m36.31 5c5.859 4.062 9.688 10.831 9.688 18.5 0 12.426-10.07 22.5-22.5 22.5-7.669 0-14.438-3.828-18.5-9.688 1.037 1.822 2.306 3.499 3.781 4.969 4.085 3.712 9.514 5.969 15.469 5.969 12.703 0 23-10.298 23-23 0-5.954-2.256-11.384-5.969-15.469-1.469-1.475-3.147-2.744-4.969-3.781zm4.969 3.781c3.854 4.113 6.219 9.637 6.219 15.719 0 12.703-10.297 23-23 23-6.081 0-11.606-2.364-15.719-6.219 4.16 4.144 9.883 6.719 16.219 6.719 12.703 0 23-10.298 23-23 0-6.335-2.575-12.06-6.719-16.219z" style="opacity:.05"/>
 <path d="m41.28 8.781c3.712 4.085 5.969 9.514 5.969 15.469 0 12.703-10.297 23-23 23-5.954 0-11.384-2.256-15.469-5.969 4.113 3.854 9.637 6.219 15.719 6.219 12.703 0 23-10.298 23-23 0-6.081-2.364-11.606-6.219-15.719z" style="opacity:.1"/>
 <path d="m31.25 2.375c8.615 3.154 14.75 11.417 14.75 21.13 0 12.426-10.07 22.5-22.5 22.5-9.708 0-17.971-6.135-21.12-14.75a23 23 0 0 0 44.875-7 23 23 0 0 0-16-21.875z" style="opacity:.2"/>
 <path d="m24 1c12.703 0 23 10.297 23 23s-10.297 23-23 23-23-10.297-23-23 10.297-23 23-23z" style="fill:url(#linearGradient3764)"/>
 <g transform="translate(1 1)" style="opacity:.1">
  <path d="m24 8-4 3h-6l-2 2h9l3-2 3 2h9l-2-2h-6l-4-3zm0 6a10 10 0 0 0-10 10 10 10 0 0 0 10 10 10 10 0 0 0 10-10 10 10 0 0 0-10-10zm-12 21 2 2h6l4 3 4-3h6l2-2h-9l-3 2-3-2h-9z"/>
 </g>
 <path d="m28 11h2l1 1 1-1h2l2 2h-9l-3-2-3 2h-9l2-2h6l4-3zm-8 26h-6l-2-2h9l3 2 3-2h9l-2 2h-6l-4 3z" style="fill:#8c8c8c"/>
 <circle cx="24" cy="24" r="10" fill="#8c8c8c"/>
 <ellipse cx="24" cy="24.5" rx="8" ry="8.5" style="fill:#9b9b9b"/>
 <circle cx="24" cy="24" r="7" fill="#5297d2"/>
 <g fill="#fff">
  <circle cx="24" cy="24" r="6" style="opacity:.25"/>
  <circle cx="24" cy="24" r="5" style="opacity:.25"/>
  <circle cx="24" cy="24" r="4" style="opacity:.25"/>
  <circle cx="24" cy="24" r="3" style="opacity:.25"/>
 </g>
 <path d="m40.03 7.531c3.712 4.084 5.969 9.514 5.969 15.469 0 12.703-10.297 23-23 23-5.954 0-11.384-2.256-15.469-5.969 4.178 4.291 10.01 6.969 16.469 6.969 12.703 0 23-10.298 23-23 0-6.462-2.677-12.291-6.969-16.469z" style="opacity:.1"/>
</svg>

<svg xmlns="http://www.w3.org/2000/svg" viewBox="0 0 48 48">
 <defs>
  <linearGradient id="linearGradient3764" x1="1" x2="47" gradientUnits="userSpaceOnUse" gradientTransform="matrix(0,-1,1,0,-1.5e-6,47.999998)">
   <stop style="stop-color:#313639;stop-opacity:1"/>
   <stop offset="1" style="stop-color:#3a4043;stop-opacity:1"/>
  </linearGradient>
 </defs>
 <g>
  <path d="m 36.31 5 c 5.859 4.062 9.688 10.831 9.688 18.5 c 0 12.426 -10.07 22.5 -22.5 22.5 c -7.669 0 -14.438 -3.828 -18.5 -9.688 c 1.037 1.822 2.306 3.499 3.781 4.969 c 4.085 3.712 9.514 5.969 15.469 5.969 c 12.703 0 23 -10.298 23 -23 c 0 -5.954 -2.256 -11.384 -5.969 -15.469 c -1.469 -1.475 -3.147 -2.744 -4.969 -3.781 z m 4.969 3.781 c 3.854 4.113 6.219 9.637 6.219 15.719 c 0 12.703 -10.297 23 -23 23 c -6.081 0 -11.606 -2.364 -15.719 -6.219 c 4.16 4.144 9.883 6.719 16.219 6.719 c 12.703 0 23 -10.298 23 -23 c 0 -6.335 -2.575 -12.06 -6.719 -16.219 z" style="opacity:0.05"/>
  <path d="m 41.28 8.781 c 3.712 4.085 5.969 9.514 5.969 15.469 c 0 12.703 -10.297 23 -23 23 c -5.954 0 -11.384 -2.256 -15.469 -5.969 c 4.113 3.854 9.637 6.219 15.719 6.219 c 12.703 0 23 -10.298 23 -23 c 0 -6.081 -2.364 -11.606 -6.219 -15.719 z" style="opacity:0.1"/>
  <path d="m 31.25 2.375 c 8.615 3.154 14.75 11.417 14.75 21.13 c 0 12.426 -10.07 22.5 -22.5 22.5 c -9.708 0 -17.971 -6.135 -21.12 -14.75 a 23 23 0 0 0 44.875 -7 a 23 23 0 0 0 -16 -21.875 z" style="opacity:0.2"/>
 </g>
 <g>
  <path d="m 24 1 c 12.703 0 23 10.297 23 23 c 0 12.703 -10.297 23 -23 23 -12.703 0 -23 -10.297 -23 -23 0 -12.703 10.297 -23 23 -23 z" style="fill:url(#linearGradient3764);fill-opacity:1"/>
 </g>
 <g transform="translate(1 1)" style="opacity:0.1">
  <path d="M 24 8 L 20 11 L 14 11 L 12 13 L 21 13 L 24 11 L 27 13 L 36 13 L 34 11 L 28 11 L 24 8 z M 24 14 A 10 10 0 0 0 14 24 A 10 10 0 0 0 24 34 A 10 10 0 0 0 34 24 A 10 10 0 0 0 24 14 z M 12 35 L 14 37 L 20 37 L 24 40 L 28 37 L 34 37 L 36 35 L 27 35 L 24 37 L 21 35 L 12 35 z"/>
 </g>
 <g>
  <path d="m 28,11 2,0 1,1 1,-1 2,0 2,2 -9,0 -3,-2 -3,2 -9,0 2,-2 6,0 4,-3 z m -8,26 -6,0 -2,-2 9,0 3,2 3,-2 9,0 -2,2 -6,0 -4,3 z" style="fill:#8c8c8c"/>
  <circle cx="24" cy="24" r="10" fill="#8c8c8c"/>
  <ellipse cx="24" cy="24.5" rx="8" ry="8.5" style="fill:#9b9b9b"/>
  <circle cx="24" cy="24" r="7" fill="#5297d2"/>
  <circle cx="24" cy="24" r="6" fill="#fff" style="opacity:0.25"/>
  <circle cx="24" cy="24" r="5" fill="#fff" style="opacity:0.25"/>
  <circle cx="24" cy="24" r="4" fill="#fff" style="opacity:0.25"/>
  <circle cx="24" cy="24" r="3" fill="#fff" style="opacity:0.25"/>
 </g>
 <g>
  <path d="m 40.03 7.531 c 3.712 4.084 5.969 9.514 5.969 15.469 0 12.703 -10.297 23 -23 23 c -5.954 0 -11.384 -2.256 -15.469 -5.969 4.178 4.291 10.01 6.969 16.469 6.969 c 12.703 0 23 -10.298 23 -23 0 -6.462 -2.677 -12.291 -6.969 -16.469 z" style="opacity:0.1"/>
 </g>
</svg>
